styles/icons/center-f01.svg

<svg xmlns="http://www.w3.org/2000/svg" xmlns:xlink="http://www.w3.org/1999/xlink" width="24" height="24" viewBox="0 0 24 24">
  <defs>
    <path id="center-f01-a" d="M11,18.7269877 C8.04493218,18.2914726 5.70852743,15.9550678 5.27301227,13 L2.39640677,13 C2.17747736,13 2,12.8154297 2,12.5952702 L2,11.4047298 C2,11.1812037 2.17303467,11 2.39640677,11 L5.27301227,11 C5.70852743,8.04493218 8.04493218,5.70852743 11,5.27301227 L11,2.39640677 C11,2.17747736 11.1845703,2 11.4047298,2 L12.5952702,2 C12.8187963,2 13,2.17303467 13,2.39640677 L13,5.27301227 C15.9550678,5.70852743 18.2914726,8.04493218 18.7269877,11 L21.6035932,11 C21.8225226,11 22,11.1845703 22,11.4047298 L22,12.5952702 C22,12.8187963 21.8269653,13 21.6035932,13 L18.7269877,13 C18.2914726,15.9550678 15.9550678,18.2914726 13,18.7269877 L13,21.6035932 C13,21.8225226 12.8154297,22 12.5952702,22 L11.4047298,22 C11.1812037,22 11,21.8269653 11,21.6035932 L11,18.7269877 Z M11,17.1039367 L11,15.3964068 C11,15.1774774 11.1845703,15 11.4047298,15 L12.5952702,15 C12.8187963,15 13,15.1730347 13,15.3964068 L13,17.1039367 C15.0698206,16.7007479 16.7007479,15.0698206 17.1039367,13 L15.3964068,13 C15.1774774,13 15,12.8154297 15,12.5952702 L15,11.4047298 C15,11.1812037 15.1730347,11 15.3964068,11 L17.1039367,11 C16.7007479,8.93017944 15.0698206,7.29925209 13,6.89606331 L13,8.60359323 C13,8.82252264 12.8154297,9 12.5952702,9 L11.4047298,9 C11.1812037,9 11,8.82696533 11,8.60359323 L11,6.89606331 C8.93017944,7.29925209 7.29925209,8.93017944 6.89606331,11 L8.60359323,11 C8.82252264,11 9,11.1845703 9,11.4047298 L9,12.5952702 C9,12.8187963 8.82696533,13 8.60359323,13 L6.89606331,13 C7.29925209,15.0698206 8.93017944,16.7007479 11,17.1039367 Z"/>
  </defs>
  <g fill="none" fill-rule="evenodd">
    <use fill="#FFF" fill-rule="nonzero" xlink:href="#center-f01-a"/>
  </g>
</svg>

<svg fill="#FFFFFF" height="24" width="24" viewBox="0 0 24 24" xmlns="http://www.w3.org/2000/svg">
    <path d="M11,18.7C8,18.3,5.7,16,5.3,13H2.4C2.2,13,2,12.8,2,12.6v-1.2C2,11.2,2.2,11,2.4,11h2.9C5.7,8,8,5.7,11,5.3V2.4C11,2.2,11.2,2,11.4,2h1.2C12.8,2,13,2.2,13,2.4v2.9c3,0.4,5.3,2.8,5.7,5.7h2.9c0.2,0,0.4,0.2,0.4,0.4v1.2c0,0.2-0.2,0.4-0.4,0.4h-2.9c-0.4,3-2.8,5.3-5.7,5.7v2.9c0,0.2-0.2,0.4-0.4,0.4h-1.2c-0.2,0-0.4-0.2-0.4-0.4V18.7z M11,17.1v-1.7c0-0.2,0.2-0.4,0.4-0.4h1.2c0.2,0,0.4,0.2,0.4,0.4v1.7c2.1-0.4,3.7-2,4.1-4.1h-1.7c-0.2,0-0.4-0.2-0.4-0.4v-1.2c0-0.2,0.2-0.4,0.4-0.4h1.7c-0.4-2.1-2-3.7-4.1-4.1v1.7C13,8.8,12.8,9,12.6,9h-1.2C11.2,9,11,8.8,11,8.6V6.9c-2.1,0.4-3.7,2-4.1,4.1h1.7C8.8,11,9,11.2,9,11.4v1.2C9,12.8,8.8,13,8.6,13H6.9C7.3,15.1,8.9,16.7,11,17.1z"/>
</svg>
